!!!!SEGMENT: pl-cz--iii-589--001_rygall-ignacy--gentes-laudate-mariam-euntre.krn
!!!cenid: 17xx:1102
!!!COM: Rygall, Ignacy
!!!COM-rismID: pe30110281
!!!CDT: <1750->1799
!!!CNT:
!!!OPR: Gentes laudate Mariam
!!!OTL: Euntre
!!!OMV: 001
!!!PDT:
!!!AGN:
!!!SMS-siglum: PL-CZ
!!!SMS-shelfmark: III-589
!!!SMS-shelfwork: 001-001 M
!!!SMS-variant:
!!!SMS-altvar:
!!!NIFC-rismSourceID: 300001124
!!!NIFC-islandoraID: pl-cz:39366
!!!URL-pdf-islandora: https://repozytorium.nifc.pl/islandora/object/pl-cz%3A39366/datastream/PDF/view
!!!URL-scan:
!!!ONB-nifc: UWAGA: części Gentes laudate Mariam: Euntre (+ Gentes laudate Mariam (Basso solo)),
!!!AIN: 1 bass 1 cemba 2 soprn 1 viola 2 violn
!!!key: D
**kern	**kern	**kern	**kern	**kern	**kern	**kern	**kern	**dynam	**kern	**text	**kern	**kern	**kern
*group3	*group3	*group2	*group2	*group2	*group2	*group2	*group2	*	*group1	*	*group1	*group1	*group1
*part1	*part1	*part7	*part7	*part6	*part6	*part5	*part5	*part5	*part4	*part4	*part4	*part3	*part2
*staff2	*staff1	*staff12	*staff11	*staff10	*staff9	*staff8	*staff7	*	*staff6	*staff6	*staff5	*staff4	*staff3
*I"Clavi Cembalo	*I"Clavi Cembalo	*I"Viola	*I"Viola	*I"Violino Secondo	*I"Violino Secondo	*I"Violino Primo	*I"Violino Primo	*	*I"Baſso Voce	*	*I"Baſso Voce	*I"Canto 2do	*I"Canto 1mo
*I'[Cemb]	*I'[Cemb]	*I'[Vla]	*I'[Vla]	*I'[Vl 2]	*I'[Vl 2]	*I'[Vl 2]	*I'[Vl 1]	*	*I'[B]	*	*I'[B]	*I'[S 2]	*I'[S 1]
*Icemba	*Icemba	*Iviola	*Iviola	*Ivioln	*Ivioln	*Ivioln	*Ivioln	*	*Ibass	*	*Ibass	*Isoprn	*Isoprn
*ICklav	*ICklav	*ICstr	*ICstr	*ICstr	*ICstr	*ICstr	*ICstr	*	*ICvox	*	*ICvox	*ICvox	*ICvox
*IGacmp	*IGacmp	*IGacmp	*IGacmp	*IGacmp	*IGacmp	*IGacmp	*IGacmp	*	*IGcoro	*	*IGcoro	*IGcoro	*IGcoro
*clefF4	*clefF4	*clefC3	*clefF4	*clefG2	*clefF4	*clefG2	*clefF4	*	*clefF4	*	*clefG2	*clefC1	*clefC1
*k[f#c#]	*k[f#c#]	*k[f#c#]	*k[f#c#]	*k[f#c#]	*k[f#c#]	*k[f#c#]	*k[f#c#]	*	*k[f#c#]	*	*k[f#c#]	*k[f#c#]	*k[f#c#]
*D:	*D:	*D:	*D:	*D:	*D:	*D:	*D:	*	*D:	*	*D:	*D:	*D:
*M4/4	*M4/4	*M4/4	*M4/4	*M4/4	*M4/4	*M4/4	*M4/4	*	*M4/4	*	*M4/4	*M4/4	*M4/4
*met(c)	*met(c)	*met(c)	*met(c)	*met(c)	*met(c)	*met(c)	*met(c)	*	*met(c)	*	*met(c)	*met(c)	*met(c)
=1	=1	=1	=1	=1	=1	=1	=1	=1	=1	=1	=1	=1	=1
!LO:TX:t=P:problem=all\middle&colon; global	!LO:TX:t=P:problem=all\middle&colon; global	!LO:TX:t=P:problem=all\right&colon; global	!LO:TX:t=P:problem=all\right&colon; global	!LO:TX:t=P:problem=all\middle&colon; global	!LO:TX:t=P:problem=all\middle&colon; global	!LO:TX:a:t=|:problem	!LO:TX:t=P:problem=all\middle&colon; global	!	!	!	!	!	!
!	!LO:TX:b:t=Euntre	!	!LO:TX:b:t=Euntre	!	!LO:TX:b:t=Euntre	!	!LO:TX:b:t=Euntre	!	!	!	!LO:TX:t=P:problem=all\right&colon; global	!	!
!LO:TX:a:t=|:problem	!LO:TX:a:B:t=Andante	!	!LO:TX:a:B:t=Andante	!LO:TX:b:t=|:problem	!LO:TX:a:B:t=Andante	!LO:TX:t=P:problem=all\middle&colon; global	!LO:TX:a:B:t=Andante	!LO:DY:b=2:t=mezo for	!	!	!LO:TX:b:t=Euntre	!LO:TX:a:t=Euntre Con Aria Tace	!LO:TX:a:t=Euntre con Aria Tace
8D\L	1ryy	8A'</L	1ryy	(<8f#/L	1ryy	8dd\L	1ryy	mf	1ryy	.	8dd\L	1ryy	1ryy
(>16D'>\L	.	(<16A'</L	.	16f#'</L	.	(>16dd'>\L	.	.	.	.	16dd\L	.	.
16D'>\JJ	.	16A'</JJ	.	16f#'</JJ)	.	16dd'>\JJ)	.	.	.	.	16dd\JJ	.	.
16D'>\LL)	.	16A'</LL	.	(<16f#'</LL	.	(>16dd'>\LL	.	.	.	.	16dd\LL	.	.
(16D'>\	.	16A'</	.	16f#'</	.	16dd'>\	.	.	.	.	16dd\	.	.
16D'>\	.	16A'</	.	16g'</	.	16ee'>\	.	.	.	.	16ee\	.	.
16D'>\JJ	.	16A'</JJ)	.	16a'</JJ)	.	16ff#'>\JJ)	.	.	.	.	16ff#\JJ	.	.
*2\right	*	*	*	*	*	*	*	*	*	*	*	*	*
*tremolo	*	*	*	*	*	*	*	*	*	*	*	*	*
16D'>\LL	.	16d\LL	.	(<16a'</LL	.	(>16ff#\LL	.	.	.	.	16ff#\LL	.	.
16D'>\	.	16d\	.	16b'</	.	16gg\)	.	.	.	.	16gg\	.	.
16D'>\	.	16d\	.	16g'</	.	16ee'>\	.	.	.	.	16ee\	.	.
16D'>\	.	16d\JJ	.	16g'</JJ)	.	16ee'>\JJ	.	.	.	.	16ee\JJ	.	.
!	!	!	!	!	!	!LO:TX:a:t=|:problem	!	!	!	!	!	!	!
16D'>\	.	16d\LL	.	4g/	.	4ee\	.	.	.	.	4ee\	.	.
16D'>\	.	16d\	.	.	.	.	.	.	.	.	.	.	.
16D'>\	.	16d\	.	.	.	.	.	.	.	.	.	.	.
16D'>\JJ	.	16d\JJ	.	.	.	.	.	.	.	.	.	.	.
*Xtremolo	*	*	*	*	*	*	*	*	*	*	*	*	*
=2	=2	=2	=2	=2	=2	=2	=2	=2	=2	=2	=2	=2	=2
!LO:TX:a:t=|:problem	!	!	!	!LO:TX:b:t=|:problem	!	!	!	!	!	!	!	!	!
8C#\L)	1ryy	8c#\L	1ryy	8A/L	1ryy	(>8ee'>\L	1ryy	.	1ryy	.	8ee\L	1ryy	1ryy
(16C#'>\L	.	16c#\L	.	(16A'</L	.	16ee'>\L	.	.	.	.	16ee\L	.	.
16C#'>\JJ	.	16c#\JJ	.	16A'</JJ)	.	16ee'>\JJ)	.	.	.	.	16ee\JJ	.	.
16C#'>\LL)	.	16c#\LL	.	(<16A'</LL	.	(>16ee'>\LL	.	.	.	.	16ee\LL	.	.
(16C#'>\	.	16c#\	.	16A'</	.	16ff#'>\	.	.	.	.	16ff#\	.	.
16C#'>\	.	16c#\	.	16A'</	.	16gg'>\	.	.	.	.	16gg\	.	.
16C#'>\JJ	.	16c#\JJ	.	16A'</JJ)	.	16aa'>\JJ)	.	.	.	.	16aa\JJ	.	.
!LO:TX:a:t=|:problem	!	!	!	!	!	!	!	!	!	!	!	!	!
16C#\LL)	.	16c#\LL	.	(<16A'</LL	.	16gg'>\LL	.	.	.	.	16gg\LL	.	.
!LO:TX:a:t=|:problem	!	!	!	!	!	!	!	!	!	!	!	!	!
(16D\	.	16d\	.	16A'</	.	16ff#'>\	.	.	.	.	16ff#\	.	.
16D'>\	.	16d\	.	16A'</	.	16ff#'>\	.	.	.	.	16ff#\	.	.
16D'>\JJ	.	16d\JJ	.	16A'</JJ)	.	16ff#'>\JJ	.	.	.	.	16ff#\JJ	.	.
!	!	!	!	!LO:TX:b:t=|:problem	!	!LO:TX:a:t=|:problem	!	!	!	!	!	!	!
16D'>\LL	.	16d\LL	.	4A/	.	4ff#\	.	.	.	.	4ff#\	.	.
16D'>\	.	16d\	.	.	.	.	.	.	.	.	.	.	.
16D'>\	.	16d\	.	.	.	.	.	.	.	.	.	.	.
16D'>\JJ)	.	16d\JJ	.	.	.	.	.	.	.	.	.	.	.
=3	=3	=3	=3	=3	=3	=3	=3	=3	=3	=3	=3	=3	=3
!	!	!	!	!LO:TX:b:t=|:problem	!	!	!	!	!	!	!	!	!
8F#\L	1ryy	8d\L	1ryy	8f#/L	1ryy	8aa'>\L	1ryy	.	1ryy	.	8aa\L	1ryy	1ryy
16F#\L	.	16d\L	.	(<16a'</L	.	(>16dd'>\L	.	.	.	.	16dd\L	.	.
16F#\JJ	.	16d\JJ	.	16a'</JJ)	.	16dd'>\JJ)	.	.	.	.	16dd\JJ	.	.
16F#\LL	.	16d\LL	.	(>16b'>\LL	.	(>16dd'>\LL	.	.	.	.	16dd\LL	.	.
16F#\	.	16d\	.	16a'>\	.	16ccn'>\	.	.	.	.	16ccn\	.	.
16F#\	.	16d\	.	16ccn'>\	.	16ee'>\	.	.	.	.	16ee\	.	.
16F#\JJ	.	16d\JJ	.	16b'>\JJ)	.	16dd'>\JJ)	.	.	.	.	16dd\JJ	.	.
*	*	*2\right	*	*	*	*	*	*	*	*	*	*	*
*	*	*tremolo	*	*	*	*	*	*	*	*	*	*	*
16F#\LL	.	16d\LL	.	(>16a'>\LL	.	(>16cc'>\LL	.	.	.	.	16cc\LL	.	.
16G\	.	16d\	.	16g'>\	.	16b'>\	.	.	.	.	16b\	.	.
16G\	.	16d\	.	16g'>\	.	16b'>\	.	.	.	.	16b\	.	.
16G\JJ	.	16d\	.	16g'>\JJ)	.	16b'>\JJ)	.	.	.	.	16b\JJ	.	.
!	!	!	!	!	!	!LO:TX:a:t=|:problem	!	!	!	!	!	!	!
16G\LL	.	16d\	.	4g\	.	4b\	.	.	.	.	4b\	.	.
16G\	.	16d\	.	.	.	.	.	.	.	.	.	.	.
16G\	.	16d\	.	.	.	.	.	.	.	.	.	.	.
16G\JJ	.	16d\JJ	.	.	.	.	.	.	.	.	.	.	.
*	*	*Xtremolo	*	*	*	*	*	*	*	*	*	*	*
!LO:LB:g=original	!LO:LB:g=original	!LO:LB:g=original	!	!LO:LB:g=original	!	!LO:LB:g=original	!	!	!	!	!	!	!
=4	=4	=4	=4	=4	=4	=4	=4	=4	=4	=4	=4	=4	=4
!!mixed beam:problem
!	!LO:TX:t=P:problem=mixed beam	!	!LO:TX:t=P:problem=mixed beam	!LO:TX:a:t=|:problem	!	!LO:TX:a:t=|:problem	!	!	!	!	!	!	!
8G\L	1ryy	8d\L 8g\	1ryy	16b\LL	1ryy	16gg\LL	1ryy	.	1ryy	.	16gg\LL	1ryy	1ryy
!	!	!	!	!LO:TX:a:t=|:problem	!	!LO:TX:a:t=|:problem	!	!	!	!	!	!	!
.	.	.	.	16b\	.	16gg\	.	.	.	.	16gg\	.	.
8G\	.	8g\	.	(>16a\	.	(>16ff#\	.	.	.	.	16ff#\	.	.
.	.	.	.	16g\JJ)	.	16ee\JJ)	.	.	.	.	16ee\JJ	.	.
8A\	.	8a\	.	(>16g\LL	.	(>16ee\LL	.	.	.	.	16ee\LL	.	.
.	.	.	.	16f#\)	.	16dd\)	.	.	.	.	16dd\	.	.
8AA/J	.	8A/J	.	(>16f#\	.	(>16dd\	.	.	.	.	16dd\	.	.
.	.	.	.	16e\JJ)	.	16cc#\JJ)	.	.	.	.	16cc#\JJ	.	.
!	!	!LO:TX:a:t=|:problem	!	!	!	!	!	!	!	!	!LO:LB:g=original	!	!
8D\L	.	8d\L	.	8f#\L	.	8ff#\L 8ddd\	.	.	.	.	8ff#\L 8ddd\	.	.
!	!	!LO:TX:a:t=|:problem	!	!	!	!	!	!	!	!	!	!	!
16d\L	.	16d\L	.	16f#\L 16dd\	.	16ff#\L 16ddd\	.	.	.	.	16ff#\L 16ddd\	.	.
!	!	!LO:TX:a:t=|:problem	!	!	!	!	!	!	!	!	!	!	!
16d\JJ	.	16d\JJ	.	16f#\JJ 16dd\	.	16ff#\JJ 16ddd\	.	.	.	.	16ff#\JJ 16ddd\	.	.
!	!	!LO:TX:a:t=|:problem	!	!	!	!	!	!	!	!	!	!	!
8B\L	.	8B\L	.	8f#\L 8dd\	.	8ff#\L 8ddd\	.	.	.	.	8ff#\L 8ddd\	.	.
!	!	!LO:TX:a:t=|:problem	!	!	!	!	!	!	!	!	!	!	!
8A\J	.	8A\J	.	8f#\J 8dd\	.	8ff#\J 8ddd\	.	.	.	.	8ff#\J 8ddd\	.	.
=5	=5	=5	=5	=5	=5	=5	=5	=5	=5	=5	=5	=5	=5
4G#X\	16e\	4G#X/	16e\	4e\ 4b\	16e\	4e\ 4b\ 4ee\	16e\	.	16e\	Gen-	4b\ 4ee\	1ryy	1ryy
.	16B\	.	16B\	.	16B\	.	16B\	.	16B\	-tes	.	.	.
.	16A\	.	16A\	.	16A\	.	16A\	.	16A\	Lau-	.	.	.
.	16B\	.	16B\	.	16B\	.	16B\	.	16B\	-da-	.	.	.
4ryy	8G#X\	4ryy	8G#X\	4ryy	8G#X\	4ryy	8G#X\	.	8G#X\	-te	4ryy	.	.
.	8G#\	.	8G#\	.	8G#\	.	8G#\	.	8G#\	Ma-	.	.	.
2ryy	16G#X\	2ryy	16G#X\	2ryy	16G#\	2ryy	16G#X\	.	16G#X\	-ri-	2ryy	.	.
.	16A\	.	16A\	.	16A\	.	16A\	.	16A\	.	.	.	.
!	!LO:N:vis=8	!	!	!	!	!	!	!	!	!	!	!	!
.	16B\	.	16B\	.	16B\	.	16B\	.	16B\	-am,	.	.	.
.	16B\	.	16B\	.	16B\	.	16B\	.	16B\	ca-	.	.	.
.	16c#\	.	16c#\	.	16c#\	.	16c#\	.	16c#\	-ni-	.	.	.
!	!LO:N:vis=8	!	!LO:N:vis=8	!	!LO:N:vis=8	!	!	!	!	!	!	!	!
.	16d\	.	16d\	.	16d\	.	16d\	.	16d\	-te	.	.	.
.	16e\	.	16e\	.	16e\	.	16e\	.	16e\	lau-	.	.	.
.	16B\	.	16B\	.	16B\	.	16B\	.	16B\	-dem	.	.	.
=6	=6	=6	=6	=6	=6	=6	=6	=6	=6	=6	=6	=6	=6
!	!	!	!	!LO:TX:b:t=|:problem	!	!	!	!	!	!	!	!	!
8A\L	8c#\	8e\L	8c#\	8c#/L	8d\	(<8a'</L	8d'>\	.	8c#\	e-	8a/L	1ryy	1ryy
16A\L	8c#\	16e\L	8c#\	(<16c#'</L	8c#\	16a'</L	8c#'>\	.	8c#\	-jus	16a/L	.	.
16A\JJ	.	16e\JJ	.	16c#'</JJ)	.	16a'</JJ)	.	.	.	.	16a/JJ	.	.
16A\LL	4ryy	16e\LL	4ryy	(<16c#'</LL	4ryy	(16a'</LL	4ryy	.	4ryy	.	16a/LL	.	.
16A\	.	16e\	.	16c#'</	.	16a'</	.	.	.	.	16a/	.	.
16A\	.	16e\	.	16d'</	.	16b'</	.	.	.	.	16b/	.	.
16A\JJ	.	16e\JJ	.	16e'</JJ)	.	16cc#'</JJ)	.	.	.	.	16cc#/JJ	.	.
*tremolo	*	*	*	*	*	*	*	*	*	*	*	*	*
*2\right	*	*tremolo	*	*	*	*	*	*	*	*	*	*	*
16A\LL	2ryy	16A/LL	2ryy	(<16e'</LL	2ryy	(<16cc#/LL	2ryy	.	2ryy	.	16cc#/LL	.	.
16A\	.	16A/	.	16f#'</	.	16dd/)	.	.	.	.	16dd/	.	.
16A\	.	16A/	.	16d'</	.	(<16b'</	.	.	.	.	16b/	.	.
16A\	.	16A/	.	16d'</JJ	.	16b'</JJ)	.	.	.	.	16b/JJ	.	.
!	!	!	!	!	!	!LO:TX:b:t=|:problem	!	!	!	!	!	!	!
16A\	.	16A/	.	4d/)	.	4b/	.	.	.	.	4b/	.	.
16A\	.	16A/	.	.	.	.	.	.	.	.	.	.	.
16A\	.	16A/	.	.	.	.	.	.	.	.	.	.	.
16A\JJ	.	16A/JJ	.	.	.	.	.	.	.	.	.	.	.
*Xtremolo	*	*Xtremolo	*	*	*	*	*	*	*	*	*	*	*
=7	=7	=7	=7	=7	=7	=7	=7	=7	=7	=7	=7	=7	=7
8G#X\L	1ryy	8G#X/L	1ryy	8e'</L	1ryy	8b'>\L	1ryy	.	1ryy	.	8b\L	1ryy	1ryy
16G#\L	.	16G#/L	.	(<16e'</L	.	(16b'>\L	.	.	.	.	16b\L	.	.
16G#\JJ	.	16G#/JJ	.	16e'</JJ)	.	16b'>\JJ)	.	.	.	.	16b\JJ	.	.
16G#\LL	.	16G#/LL	.	(<16e'</LL	.	(16b'>\LL	.	.	.	.	16b\LL	.	.
16G#\	.	16G#/	.	16e'</	.	16cc#'>\	.	.	.	.	16cc#\	.	.
16G#\	.	16G#/	.	16e'</	.	16dd'>\	.	.	.	.	16dd\	.	.
!	!	!	!	!LO:LB:g=original	!	!	!	!	!	!	!	!	!
16G#\JJ	.	16G#/JJ	.	16e'</JJ)	.	16ee'>\JJ)	.	.	.	.	16ee\JJ	.	.
!LO:LB:g=original	!	!	!	!	!	!	!	!	!	!	!	!	!
*tremolo	*	*	*	*	*	*	*	*	*	*	*	*	*
16G#X\LL	.	16G#/LL	.	(<16e'</LL	.	(16dd\LL	.	.	.	.	16dd\LL	.	.
16G#X\	.	16A/	.	16e'</	.	16cc#\)	.	.	.	.	16cc#\	.	.
16G#X\	.	16A/	.	16e'</	.	(16cc#'>\	.	.	.	.	16cc#\	.	.
16G#X\	.	16A/JJ	.	16e'</JJ)	.	16cc#'>\JJ)	.	.	.	.	16cc#\JJ	.	.
16G#X\	.	16A/LL	.	4e/	.	4cc#\	.	.	.	.	4cc#\	.	.
16G#X\	.	16A/	.	.	.	.	.	.	.	.	.	.	.
16G#X\	.	16A/	.	.	.	.	.	.	.	.	.	.	.
16G#X\JJ	.	16A/JJ	.	.	.	.	.	.	.	.	.	.	.
*Xtremolo	*	*	*	*	*	*	*	*	*	*	*	*	*
!	!	!LO:LB:g=original	!	!	!	!LO:LB:g=original	!	!	!	!	!LO:LB:g=original	!	!
=8	=8	=8	=8	=8	=8	=8	=8	=8	=8	=8	=8	=8	=8
*	*	*	*	*	*	*^	*	*	*	*	*	*	*
!LO:TX:a:t=|:problem	!	!	!LO:TX:t=P:problem=mixed beam	!LO:TX:a:t=|:problem	!	!	!	!	!	!	!	!	!	!
8A\L	2ryy	8A/L	2ryy	8cc#\L	2ryy	8aa\L	8a/L	2ryy	.	2ryy	.	8aa\L	1ryy	1ryy
!LO:TX:a:t=|:problem	!	!	!	!LO:TX:a:t=|:problem	!	!	!	!	!	!	!	!	!	!
16A\L	.	16a\L	.	16cc#\L	.	16aa\L	16a/L	.	.	.	.	16aa\L	.	.
!LO:TX:a:t=|:problem	!	!	!	!LO:TX:a:t=|:problem	!	!	!	!	!	!	!	!	!	!
16A\JJ	.	16a\JJ	.	16cc#\JJ	.	16aa\JJ	16a/JJ	.	.	.	.	16aa\JJ	.	.
!LO:TX:a:t=|:problem	!	!	!	!	!	!	!	!	!	!	!	!	!	!
8F#\L	.	8f#\L	.	8cc#\L	.	8aa\L	8ryy	.	.	.	.	8cc#\L 8aa\	.	.
!LO:TX:a:t=|:problem	!	!	!	!	!	!	!	!	!	!	!	!	!	!
8E\J	.	8e\J	.	8cc#\J	.	8aa\J	8ryy	.	.	.	.	8cc#\J 8aa\	.	.
!LO:TX:a:t=|:problem	!	!	!	!	!	!	!	!	!	!	!	!	!	!
4D#X\	8B\	4d#X\	8B\	4f#\ 4b\	8B\	4bb\	4b\	8B\	.	[>8B\	Psal-	4b\ 4bb\	.	.
.	8B\	.	8B\	.	8B\	.	.	8B\	.	8B\]	.	.	.	.
4ryy	8F#\	4ryy	8F#\	4ryy	8F#\	4ryy	4ryy	8F#\	.	8F#\	-li-	4ryy	.	.
.	16E\	.	16E\	.	16E\	.	.	16E\	.	16E\	.	.	.	.
.	16F#\	.	16F#\	.	16F#\	.	.	16F#\	.	16F#\	-te	.	.	.
*	*	*	*	*	*	*v	*v	*	*	*	*	*	*	*
=9	=9	=9	=9	=9	=9	=9	=9	=9	=9	=9	=9	=9	=9
1ryy	8D#X\	1ryy	8D#X\	1ryy	8D#X\	1ryy	8D#X\	.	8D#X\	no-	1ryy	1ryy	1ryy
.	8D#\	.	8D#\	.	8D#\	.	8D#\	.	8D#\	-mi-	.	.	.
.	8F#\	.	8F#\	.	8F#\	.	8F#\	.	8F#\	-ni	.	.	.
.	16F#\	.	16F#\	.	16F#\	.	16F#\	.	16F#\	e-	.	.	.
.	16G\	.	16G\	.	16G\	.	16G\	.	16G\	-jus,	.	.	.
!	!LO:N:vis=8	!	!LO:N:vis=8	!	!	!	!	!	!	!	!	!	!
.	4A\	.	4A\	.	4A\	.	4A\	.	4A\	quo-	.	.	.
!	!LO:N:vis=16	!	!LO:N:vis=16	!	!	!	!	!	!	!	!	!	!
.	8B\	.	8B\	.	8B\	.	8B\	.	8B\	-ni-	.	.	.
!	!LO:N:vis=16	!	!LO:N:vis=16	!	!	!	!	!	!	!	!	!	!
.	8F#\	.	8F#\	.	8F#\	.	8F#\	.	8F#\	-am	.	.	.
=10	=10	=10	=10	=10	=10	=10	=10	=10	=10	=10	=10	=10	=10
4E\	8G\	4B/	8G\	4e\ 4b\	8G\	4g/ 4b/ 4ee/	8G\	.	8G\	sua-	4b\ 4ee\	1ryy	1ryy
.	8G\	.	8G\	.	8G\	.	8G\	.	8G\	-re	.	.	.
4ryy	4r	4ryy	4r	4ryy	4r	4r	4r	.	4r	.	4ryy	.	.
2ryy	8G\	2ryy	8G\	2ryy	8G\	2r	8G\	.	8G\	ex-	2ryy	.	.
.	16F#\	.	16F#\	.	16F#\	.	16F#\	.	16F#\	-to-	.	.	.
.	16E\	.	16E\	.	16E\	.	16E\	.	16E\	-ta	.	.	.
.	8A#X\	.	8A#X\	.	8A#X\	.	8A#X\	.	8A#X\	men-	.	.	.
.	8A#\	.	8A#\	.	8A#\	.	8A#\	.	8A#\	-te	.	.	.
!LO:LB:g=original	!LO:LB:g=original	!	!	!	!	!	!	!	!	!	!	!	!
=11	=11	=11	=11	=11	=11	=11	=11	=11	=11	=11	=11	=11	=11
!	!	!	!	!	!	!	!LO:SIC:v:s:t=4A#\	!	!	!	!	!	!
2ryy	4A#X\	2ryy	4A#X\	2ryy	4A#X\	4r	4A\	.	4A#X\	can-	2r	1ryy	1ryy
.	8B\	.	8B\	.	8B\	4r	8B\	.	8B\	-ta-	.	.	.
.	8F#\	.	8F#\	.	8F#\	.	8F#\	.	8F#\	-te	.	.	.
4ryy	4r	4ryy	4r	4ryy	2ryy	4r	2ryy	.	2r	.	4r	.	.
4D\	4r	4A/	4r	4d/ 4ccn/	.	8r	.	.	.	.	8r	.	.
.	.	.	.	.	.	8d/ 8a/ 8ff#/	.	.	.	.	8d/ 8ccn/ 8ff#/	.	.
!	!	!LO:LB:g=original	!	!LO:LB:g=original	!	!	!	!	!	!	!LO:LB:g=original	!	!
=12	=12	=12	=12	=12	=12	=12	=12	=12	=12	=12	=12	=12	=12
*	*	*	*	*	*	*^	*	*	*	*	*^	*	*
4G\	1ryy	4G/	1ryy	4b\	1ryy	16gg\LL	4reyy	1ryy	.	1ryy	.	16gg\LL	2ryy	1ryy	1ryy
.	.	.	.	.	.	16dd\	.	.	.	.	.	16dd\	.	.	.
.	.	.	.	.	.	16dd\	.	.	.	.	.	16dd\	.	.	.
.	.	.	.	.	.	16dd\JJ	.	.	.	.	.	16dd\JJ	.	.	.
*	*	*	*	*	*	*Xtremolo	*Xtremolo	*	*	*	*	*tremolo	*	*	*
16r	.	16r	.	16r	.	16dd'>\LL	16d/LL	.	.	.	.	16dd\LL	.	.	.
16B\LL	.	16B/LL	.	16d'</LL	.	16dd'>\	16d/	.	.	.	.	16dd\	.	.	.
16A\	.	16A/	.	16cn'</	.	16dd'>\	16d/	.	.	.	.	16dd\	.	.	.
16G\JJ	.	16G/JJ	.	16B'</JJ	.	16dd'>\JJ	16d/JJ	.	.	.	.	16dd\JJ	.	.	.
*	*	*	*	*	*	*tremolo	*tremolo	*	*	*	*	*2\right	*tremolo	*	*
*	*	*	*	*	*	*2\right	*	*	*	*	*	*	*	*	*
8A\L	.	8A/L	.	4cn/	.	16dd\LL	16d/LL	.	.	.	.	16dd\LL	16d/LL	.	.
.	.	.	.	.	.	16dd\	16d/	.	.	.	.	16dd\	16d/	.	.
8D\J	.	8D/J	.	.	.	16dd\	16d/	.	.	.	.	16dd\	16d/	.	.
.	.	.	.	.	.	16dd\	16d/	.	.	.	.	16dd\	16d/	.	.
16D\LL	.	16D/LL	.	16r	.	16dd\	16d/	.	.	.	.	16dd\	16d/	.	.
16A\	.	16A/	.	16c/LL	.	16dd\	16d/	.	.	.	.	16dd\	16d/	.	.
16G\	.	16G/	.	16B/	.	16dd\	16d/	.	.	.	.	16dd\	16d/	.	.
16F#\JJ	.	16F#/JJ	.	16A/JJ	.	16dd\JJ	16d/JJ	.	.	.	.	16dd\JJ	16d/JJ	.	.
!	!	!	!	!	!	!LO:LB:g=original	!LO:LB:g=original	!	!	!	!	!	!	!	!
=13	=13	=13	=13	=13	=13	=13	=13	=13	=13	=13	=13	=13	=13	=13	=13
*	*	*	*	*	*	*tremolo	*tremolo	*	*	*	*	*tremolo	*tremolo	*	*
8G\L	1ryy	4G/	1ryy	4B/	1ryy	16dd\LL	16d/LL	1ryy	.	1ryy	.	16dd\LL	16d/LL	1ryy	1ryy
.	.	.	.	.	.	16dd\	16d/	.	.	.	.	16dd\	16d/	.	.
8D\J	.	.	.	.	.	16dd\	16d/	.	.	.	.	16dd\	16d/	.	.
.	.	.	.	.	.	16dd\	16d/	.	.	.	.	16dd\	16d/	.	.
16r	.	16r	.	16r	.	16dd\	16d/	.	.	.	.	16dd\	16d/	.	.
!	!	!	!	!LO:TX:b:t=|:problem	!	!	!	!	!	!	!	!	!	!	!
16B\LL	.	16B/LL	.	16d/LL	.	16dd\	16d/	.	.	.	.	16dd\	16d/	.	.
!	!	!	!	!LO:SIV:v:s:t=16cn'</	!	!	!	!	!	!	!	!	!	!	!
!	!	!	!	!LO:TX:b:t=|:problem	!	!	!	!	!	!	!	!	!	!	!
16A\	.	16A/	.	16c#/	.	16dd\	16d/	.	.	.	.	16dd\	16d/	.	.
!	!	!	!	!LO:TX:b:t=|:problem	!	!	!	!	!	!	!	!	!	!	!
16G\JJ	.	16G/JJ	.	16B/JJ	.	16dd\JJ	16d/JJ	.	.	.	.	16dd\JJ	16d/JJ	.	.
!	!	!	!	!LO:SIV:v:s:t=4cn/	!	!	!	!	!	!	!	!	!	!	!
8A\L	.	8A/L	.	4c#/	.	16dd\LL	16d/LL	.	.	.	.	16dd\LL	16d/LL	.	.
.	.	.	.	.	.	16dd\	16d/	.	.	.	.	16dd\	16d/	.	.
8D\J	.	8D/J	.	.	.	16dd\	16d/	.	.	.	.	16dd\	16d/	.	.
.	.	.	.	.	.	16dd\	16d/	.	.	.	.	16dd\	16d/	.	.
16D\LL	.	16D/LL	.	16r	.	16dd\	16d/	.	.	.	.	16dd\	16d/	.	.
!	!	!	!	!LO:SIV:v:s:t=16cn'</LL	!	!	!	!	!	!	!	!	!	!	!
!	!	!	!	!LO:TX:b:t=|:problem	!	!	!	!	!	!	!	!	!	!	!
16A\	.	16A/	.	16c#/LL	.	16dd\	16d/	.	.	.	.	16dd\	16d/	.	.
!	!	!	!	!LO:TX:b:t=|:problem	!	!	!	!	!	!	!	!	!	!	!
16G\	.	16G/	.	16B/	.	16dd\	16d/	.	.	.	.	16dd\	16d/	.	.
!	!	!	!	!LO:TX:b:t=|:problem	!	!	!	!	!	!	!	!	!	!	!
16F#\JJ	.	16F#/JJ	.	16A/JJ	.	16dd\JJ	16d/JJ	.	.	.	.	16dd\JJ	16d/JJ	.	.
*	*	*	*	*	*	*	*	*	*	*	*	*Xtremolo	*	*	*
*	*	*	*	*	*	*Xtremolo	*	*	*	*	*	*	*	*	*
*	*	*	*	*	*	*v	*v	*	*	*	*	*v	*v	*	*
=14	=14	=14	=14	=14	=14	=14	=14	=14	=14	=14	=14	=14	=14
*	*	*tremolo	*	*	*	*	*	*	*	*	*	*	*
!!mixed beam:problem
!	!	!	!	!	!LO:TX:t=P:problem=mixed beam	!	!	!	!	!	!	!	!
8G\L	4r	8G/L	4r	8B/L	4r	8dd\L	4r	.	2r	.	8dd\L	1ryy	1ryy
8G\	.	8G/	.	16dd\L	.	16bb\L	.	.	.	.	16bb\L	.	.
.	.	.	.	16cc#\JJ	.	16aa\JJ	.	.	.	.	16aa\JJ	.	.
8G\	4r	8G/	4r	16b\LL	4r	16gg\LL	4r	.	.	.	16gg\LL	.	.
.	.	.	.	16a\	.	16ff#\	.	.	.	.	16ff#\	.	.
8G\J	.	8G/J	.	16g\	.	16ee\	.	.	.	.	16ee\	.	.
.	.	.	.	16f#\JJ	.	16dd\JJ	.	.	.	.	16dd\JJ	.	.
*	*	*Xtremolo	*	*	*	*	*	*	*	*	*	*	*
4G\	8r	4G/	8r	4a\ 4ee\	8r	4a\ 4ccc#X\	4e\	.	8r	.	4a\ 4ccc#X\	.	.
.	8e\	.	8e\	.	8e\	.	.	.	8e\	.	.	.	.
4ryy	8c#X\	4ryy	8c#X\	4ryy	8c#X\	4ryy	8c#X\	.	8c#X\	.	4ryy	.	.
.	8A\	.	8A\	.	8A\	.	8A\	.	8A\	.	.	.	.
=15	=15	=15	=15	=15	=15	=15	=15	=15	=15	=15	=15	=15	=15
8r	8d\	8r	8d\	8r	8d\	8r	8d\	.	8d\	.	8r	1ryy	1ryy
!	!	!	!	!	!	!LO:SIC:v:s:n=1:t=8f#/	!	!	!	!	!	!	!
8F#\	8d\	8An/	8d\	8A/ 8f#/	8d\	8fn/ 8dd/	8d\	.	8d\	.	8f#/ 8dd/	.	.
!	!	!	!LO:N:vis=4	!	!	!	!	!	!	!	!	!	!
4F#\	4r	4A/	8r	4A/ 4f#/	4r	4f/ 4dd/	4r	.	4r	.	4f#/ 4dd/	.	.
.	.	.	8r	.	.	.	.	.	.	.	.	.	.
!LO:LB:g=original	!LO:LB:g=original	!	!	!	!	!	!	!	!	!	!	!	!
2ryy	8r	2ryy	4A\	2ryy	4A\	2ryy	4A\	.	4A\	.	2ryy	.	.
.	8A\	.	.	.	.	.	.	.	.	.	.	.	.
.	8B\	.	8B\	.	8B\	.	8B\	.	8B\	.	.	.	.
.	8cn\	.	8cn\	.	8cn\	.	8cn\	.	8cn\	.	.	.	.
!	!	!	!LO:LB:g=original	!	!	!	!	!	!	!	!	!	!
=16	=16	=16	=16	=16	=16	=16	=16	=16	=16	=16	=16	=16	=16
8r	8B\	8r	8B\	8r	8B\	8r	8B\	.	8B\	.	8r	1ryy	1ryy
8G\	8B\	8d\	8B\	8d/ 8bn/	8B\	8bn/ 8gg/	8B\	.	8B\	.	8b\ 8gg\	.	.
4G\	4r	4d\	4r	4d/ 4b/	4r	4b/ 4gg/	4r	.	4r	.	4b\ 4gg\	.	.
!	!	!	!	!	!	!	!	!	!LO:LB:g=original	!	!	!	!
2ryy	4.g\	2ryy	4.g\	2ryy	4.g\	2ryy	4.g\	.	4.g\	Di-	2ryy	.	.
.	8c#X\	.	8c#X\	.	8c#X\	.	8c#X\	.	8c#X\	-vae	.	.	.
=17	=17	=17	=17	=17	=17	=17	=17	=17	=17	=17	=17	=17	=17
8r	8d\	8r	8d\	8r	8d\	4an\ 4ccc#X\	8d\	.	8d\	Ma-	4r	1ryy	1ryy
8A\	8A\	8A/	8A\	8a/ 8ee/	8A\	.	8A\	.	8A\	-tri.	.	.	.
4D\	4r	4A/	8r	4d\ 4a\ 4ff#\	4ryy	4ff#\ 4ddd\	4ryy	.	4ryy	.	8r	.	.
!	!	!	!LO:N:vis=4	!	!	!	!	!	!	!	!	!	!
.	.	.	8r	.	.	.	.	.	.	.	8a\ 8ccc#X\	.	.
!	!LO:TX:a:t=SuB Aria	!	!	!	!	!	!	!	!	!	!	!	!
2ryy	2r	2r	2r	2ryy	2ryy	4d/	2ryy	.	2ryy	.	4ff#\ 4ddd\	.	.
!	!	!	!	!	!	!	!	!	!	!	!LO:TX:a:t=Seque Aria	!	!
.	.	.	.	.	.	4ryy	.	.	.	.	4ryy	.	.
==	==	==	==	==	==	==	==	==	==	==	==	==	==
*-	*-	*-	*-	*-	*-	*-	*-	*-	*-	*-	*-	*-	*-
!!!system-decoration: [(g1)][(g2)][{g3}]
!!!RDF**kern: > = above
!!!RDF**kern: < = below
!!!ENC: Marcin Jachim
!!!END: 2020-10-05
!!!EED: Jędrzej Mróz
!!!EEV: 2022-02-02
!!!YEC: Copyright 2022 Narodowy Instytut Fryderyka Chopina (https://polishscores.org)
!!!YEM: Licence CC BY 4.0 (https://creativecommons.org/licenses/by/4.0)
